assets/Cloud with lightning/Flat/cloud_with_lightning_flat.svg

<svg width="32" height="32" viewBox="0 0 32 32" fill="none" xmlns="http://www.w3.org/2000/svg">
<path d="M2.00164 13.6475C2.00055 13.5984 2 13.5493 2 13.5C2 10.0335 4.71358 7.20081 8.13242 7.01022C8.58773 5.27778 10.1646 4 12.04 4C12.9463 4 13.7829 4.29841 14.4568 4.80234C16.0917 3.0765 18.4051 2 20.97 2C25.3009 2 28.915 5.06935 29.7556 9.15146C29.9153 9.72536 30 10.3424 30 11C30 16 25.6938 20 21 20H8.60377C8.58613 20 8.5685 19.9999 8.55089 19.9998C8.53395 19.9999 8.51698 20 8.50001 20C7.52397 20 6.59818 19.7849 5.76746 19.3994C3.53963 18.4012 2 16.2635 2 13.7873C2 13.7406 2.00055 13.694 2.00164 13.6475Z" fill="#1345B7"/>
<path d="M19.1281 20.6086L14.7413 27.787C14.5307 28.1317 14 27.9824 14 27.5784L13.9999 22.4C13.9999 22.1791 13.8208 22 13.5999 22H11.7474C11.4279 22 11.2374 21.6439 11.4146 21.3781L16.2671 14.0992C16.4866 13.7699 16.9999 13.9253 16.9999 14.3211L17 19.6C17 19.8209 17.1791 20 17.4 20H18.7868C19.0992 20 19.291 20.342 19.1281 20.6086Z" fill="#FF6723"/>
</svg>

<svg xmlns="http://www.w3.org/2000/svg" width="32" height="32" fill="none"><path fill="#1345B7" d="M2.002 13.648a6.5 6.5 0 0 1 6.13-6.637 4.042 4.042 0 0 1 6.325-2.209A8.945 8.945 0 0 1 20.97 2c4.33 0 7.945 3.07 8.786 7.151.16.574.244 1.191.244 1.849 0 5-4.306 9-9 9H8.604a9.31 9.31 0 0 1-.104 0 6.475 6.475 0 0 1-2.733-.6C3.54 18.4 2 16.263 2 13.786c0-.046 0-.093.002-.14Z"/><path fill="#FF6723" d="m19.128 20.609-4.387 7.178c-.21.345-.741.195-.741-.209V22.4a.4.4 0 0 0-.4-.4h-1.853a.4.4 0 0 1-.332-.622l4.852-7.279a.4.4 0 0 1 .733.222V19.6c0 .22.18.4.4.4h1.387a.4.4 0 0 1 .341.609Z"/></svg>
